svg/fluentui-system-icons/ic_fluent_tabs_20_regular.svg

<svg width="20" height="20" viewBox="0 0 20 20" fill="none" xmlns="http://www.w3.org/2000/svg">
<path d="M2 8C2 4.68629 4.68629 2 8 2H11C11.892 2 12.693 2.38929 13.2426 3.00723C13.1623 3.00243 13.0814 3 13 3H8C5.23858 3 3 5.23858 3 8V13C3 13.0814 3.00244 13.1623 3.00724 13.2426C2.38929 12.6931 2 11.892 2 11V8ZM15 6C16.6569 6 18 7.34315 18 9V15C18 16.6569 16.6569 18 15 18H9C7.34315 18 6 16.6569 6 15V9C6 7.34315 7.34315 6 9 6H15ZM7 15C7 16.1046 7.89543 17 9 17H15C16.1046 17 17 16.1046 17 15V9C17 7.89543 16.1046 7 15 7H9C7.89543 7 7 7.89543 7 9V15ZM4 8.5C4 6.01472 6.01472 4 8.5 4H13C13.892 4 14.693 4.38929 15.2426 5.00723C15.1623 5.00243 15.0814 5 15 5H8.5C6.567 5 5 6.567 5 8.5V15C5 15.0814 5.00244 15.1623 5.00724 15.2426C4.38929 14.6931 4 13.892 4 13V8.5Z" fill="#212121"/>
</svg>

<svg xmlns="http://www.w3.org/2000/svg" width="20" height="20"><path d="M2 8a6 6 0 0 1 6-6h3c.892 0 1.693.39 2.243 1.007A4.066 4.066 0 0 0 13 3H8a5 5 0 0 0-5 5v5c0 .081.002.162.007.243A2.993 2.993 0 0 1 2 11V8Zm13-2a3 3 0 0 1 3 3v6a3 3 0 0 1-3 3H9a3 3 0 0 1-3-3V9a3 3 0 0 1 3-3h6Zm-8 9a2 2 0 0 0 2 2h6a2 2 0 0 0 2-2V9a2 2 0 0 0-2-2H9a2 2 0 0 0-2 2v6ZM4 8.5A4.5 4.5 0 0 1 8.5 4H13c.892 0 1.693.39 2.243 1.007A4.066 4.066 0 0 0 15 5H8.5A3.5 3.5 0 0 0 5 8.5V15c0 .081.002.162.007.243A2.993 2.993 0 0 1 4 13V8.5Z"/></svg>
